tools/download-figma-icons/icons/outlined-medium/paperless-alternative.svg

<svg width="24" height="24" viewBox="0 0 24 24" fill="none" xmlns="http://www.w3.org/2000/svg">
<path fill-rule="evenodd" clip-rule="evenodd" d="M2.25 22.5V1.5H11.3595V5.80575C11.3595 6.735 12.1185 7.49175 13.0523 7.49175H17.3483V9.78975C16.1723 9.9615 15.1253 10.527 14.3438 11.352C14.3363 11.3595 14.3265 11.361 14.319 11.3685C14.3085 11.3798 14.3048 11.3947 14.2943 11.4067C13.4453 12.3285 12.9218 13.5555 12.9218 14.9047C12.9218 17.5035 14.8493 19.6545 17.3483 20.0198V22.5H2.25ZM16.8833 5.99174H13.0523C12.9458 5.99174 12.8595 5.90849 12.8595 5.80574V1.93199L16.8833 5.99174ZM14.4217 14.9048C14.4217 14.223 14.6212 13.5923 14.946 13.044L19.9927 18.039C19.4377 18.3758 18.7942 18.5805 18.0982 18.5805C16.071 18.5805 14.4217 16.9313 14.4217 14.9048ZM21.7748 14.9047C21.7748 15.693 21.5198 16.4205 21.0953 17.019L15.9548 11.931C16.56 11.4937 17.2965 11.229 18.0983 11.229C20.1255 11.229 21.7748 12.8783 21.7748 14.9047ZM23.2747 14.9047C23.2747 12.306 21.3472 10.155 18.8482 9.78975V6.153C18.8482 5.955 18.7702 5.766 18.6315 5.625L13.2765 0.222C13.1355 0.0795 12.9435 0 12.744 0H1.5C1.086 0 0.75 0.33525 0.75 0.75V23.25C0.75 23.6647 1.086 24 1.5 24H18.0982C18.513 24 18.8482 23.6647 18.8482 23.25V20.0198C19.92 19.863 20.8845 19.38 21.639 18.6705C21.6495 18.6607 21.6637 18.657 21.6742 18.6465C21.6802 18.6405 21.6825 18.6322 21.6877 18.6255C22.6642 17.6835 23.2747 16.365 23.2747 14.9047Z" fill="black"/>
</svg>

<svg width="24" height="24" viewBox="0 0 24 24" fill="none" xmlns="http://www.w3.org/2000/svg"><path fill-rule="evenodd" clip-rule="evenodd" d="M2.25 22.5v-21h9.11v4.306a1.69 1.69 0 0 0 1.692 1.686h4.296V9.79a5.162 5.162 0 0 0-3.004 1.562c-.008.008-.018.009-.025.016-.01.012-.014.027-.025.039a5.149 5.149 0 0 0-1.372 3.498c0 2.598 1.927 4.75 4.426 5.115v2.48H2.25ZM16.883 5.992h-3.83a.19.19 0 0 1-.194-.186V1.932l4.024 4.06Zm-2.461 8.913c0-.682.2-1.313.524-1.861l5.047 4.995a3.636 3.636 0 0 1-1.895.541 3.68 3.68 0 0 1-3.676-3.675Zm7.353 0c0 .788-.255 1.516-.68 2.114l-5.14-5.088a3.645 3.645 0 0 1 2.143-.702 3.68 3.68 0 0 1 3.677 3.676Zm1.5 0c0-2.599-1.928-4.75-4.427-5.115V6.153a.752.752 0 0 0-.216-.528L13.275.222a.75.75 0 0 0-.53-.222H1.5a.75.75 0 0 0-.75.75v22.5c0 .415.336.75.75.75h16.598a.75.75 0 0 0 .75-.75v-3.23a5.157 5.157 0 0 0 2.791-1.35c.01-.01.025-.013.035-.024.006-.006.009-.014.014-.02a5.157 5.157 0 0 0 1.587-3.721Z" fill="currentColor"/></svg>
